!!!!SEGMENT: pl-cz--ii-80_elsner-jozef-bog-to-bog-sam.krn
!!!id: 18xx:207
!!!COM: Elsner, Józef
!!!OTL: Bóg to Bóg sam
!!!OMD: Graduale
!!!OMD: Duettino Soli
!!!PDT:
!!!SMS-siglum: PL-CZ
!!!SMS-shelfmark: II-80
!!!NIFC-rismID:
!!!URL-scan: http://repozytorium.nifc.pl/skany/pl-cz-nut--ii-80
!!!ONB-nifc:
!!!ENC: Krzysztof Stępień
!!!END: 2020-03-19
**kern	**dynam	**kern	**text	**kern	**text	**kern	**kern	**kern	**kern	**kern	**kern	**kern
*part10	*part10	*part9	*part9	*part8	*part8	*part7	*part6	*part5	*part4	*part3	*part2	*part1
*	*	*group3	*	*group3	*	*	*group2	*group2	*group1	*group1	*group1	*group1
*staff10	*	*staff9	*staff9	*staff8	*staff8	*staff7	*staff6	*staff5	*staff4	*staff3	*staff2	*staff1
*	*	*I'Duettino Soli	*	*I'Duettino Soli	*	*	*	*	*	*	*	*
*I"Basso	*	*I"Alto	*	*I"Soprano	*	*I"Corni in D	*I"Fagotto	*I"in A. Clarinetti	*I"Viola	*I"Vio 2.	*I"Vio I.	*I"Violino Solo
*I'B.	*	*I'A.	*	*I'S.	*	*I'C. in D	*I'Fag.	*I'Cl. in A	*I'V-la	*I'V-no	*I'V-no	*I'V-no Solo
*clefF4	*	*clefC3	*	*clefC1	*	*clefG2	*clefF4	*clefG2	*clefC3	*clefG2	*clefG2	*clefG2
*	*	*	*	*	*	*ITrd6c10	*	*ITrd2c3	*	*	*	*
*k[f#]	*	*k[f#]	*	*k[f#]	*	*k[f#]	*k[f#]	*k[f#]	*k[f#]	*k[f#]	*k[f#]	*k[f#]
*M3/4	*	*M3/4	*	*M3/4	*	*M3/4	*M3/4	*M3/4	*M3/4	*M3/4	*M3/4	*M3/4
=1	=1	=1	=1	=1	=1	=1	=1	=1	=1	=1	=1	=1
!	!	!	!	!	!	!LO:TX:a:t=P:problem:brak znaków przykluczowych	!	!	!LO:TX:a:t=P:problem:brak znaków przykluczowych	!	!	!LO:TX:a:B:t=Andantino
!LO:TX:a:t=P:problem:znak trudny do zinterpretowania (tryl? smyczek w dół? forte?)	!LO:DY:a	!	!	!	!	!	!	!LO:TX:a:t=inst.	!	!	!	!
4G\	f	2.r	.	2.r	.	2.r	2.r	2.r	4G/	4g/	4b 4d/	[4gg\
4r	.	.	.	.	.	.	.	.	4r	4r	4r	16gg\LL]
.	.	.	.	.	.	.	.	.	.	.	.	16dd\
.	.	.	.	.	.	.	.	.	.	.	.	(16b\
.	.	.	.	.	.	.	.	.	.	.	.	16dd\JJ
4r	.	.	.	.	.	.	.	.	4r	4r	4r	16gg\LL
.	.	.	.	.	.	.	.	.	.	.	.	16dd\
.	.	.	.	.	.	.	.	.	.	.	.	16bb\
.	.	.	.	.	.	.	.	.	.	.	.	16aa\JJ
=2	=2	=2	=2	=2	=2	=2	=2	=2	=2	=2	=2	=2
2.r	.	2.r	.	2.r	.	2.r	2.r	2.r	2.r	8r	8r	4gg\)
.	.	.	.	.	.	.	.	.	.	(8b\L	(8dd\L	.
.	.	.	.	.	.	.	.	.	.	8a#X\	8cc#X\	4r
.	.	.	.	.	.	.	.	.	.	8b\	8dd\	.
.	.	.	.	.	.	.	.	.	.	8cc\	8ee\	4r
.	.	.	.	.	.	.	.	.	.	8b\J)	8dd\J)	.
=3	=3	=3	=3	=3	=3	=3	=3	=3	=3	=3	=3	=3
4F#\	.	2.r	.	2.r	.	2.r	2.r	2.r	4F#/	4a\	4ccn 4d\	[4aa\
4r	.	.	.	.	.	.	.	.	4r	4r	4r	16aa\LL]
.	.	.	.	.	.	.	.	.	.	.	.	(16ff#\
.	.	.	.	.	.	.	.	.	.	.	.	16dd\
.	.	.	.	.	.	.	.	.	.	.	.	16ff#\JJ
4r	.	.	.	.	.	.	.	.	4r	4r	4r	16aa\LL
.	.	.	.	.	.	.	.	.	.	.	.	16dd\
.	.	.	.	.	.	.	.	.	.	.	.	16ccc\
.	.	.	.	.	.	.	.	.	.	.	.	16bb\JJ
=4	=4	=4	=4	=4	=4	=4	=4	=4	=4	=4	=4	=4
2.r	.	2.r	.	2.r	.	2.r	2.r	2.r	2.r	8r	8r	4aa\)
.	.	.	.	.	.	.	.	.	.	8a\L	8cc\L	.
.	.	.	.	.	.	.	.	.	.	8g#X\	8b\	4r
.	.	.	.	.	.	.	.	.	.	8a\	8cc\	.
.	.	.	.	.	.	.	.	.	.	8b\	8dd\	4r
.	.	.	.	.	.	.	.	.	.	8a\J	8cc\J	.
=5	=5	=5	=5	=5	=5	=5	=5	=5	=5	=5	=5	=5
4G\	.	2.r	.	2.r	.	2.r	2.r	2.r	4G/	4g\	4b 4d\	[4bb\
4r	.	.	.	.	.	.	.	.	4r	4r	4r	16bb\LL]
.	.	.	.	.	.	.	.	.	.	.	.	16gg\
.	.	.	.	.	.	.	.	.	.	.	.	16dd\
.	.	.	.	.	.	.	.	.	.	.	.	16gg\JJ
4r	.	.	.	.	.	.	.	.	4r	4r	4r	16bb\LL
.	.	.	.	.	.	.	.	.	.	.	.	16gg\
.	.	.	.	.	.	.	.	.	.	.	.	16ddd\
.	.	.	.	.	.	.	.	.	.	.	.	16bb\JJ
=6	=6	=6	=6	=6	=6	=6	=6	=6	=6	=6	=6	=6
4E\	.	2.r	.	2.r	.	2.r	2.r	2.r	4e\	4g\	4b\	8ggg\L
.	.	.	.	.	.	.	.	.	.	.	.	8bb\J
4C\	.	.	.	.	.	.	.	.	4c\	4r	4r	(4.eee\
4r	.	.	.	.	.	.	.	.	4r	4g\	4ee\	.
.	.	.	.	.	.	.	.	.	.	.	.	16ddd\LL
.	.	.	.	.	.	.	.	.	.	.	.	16ccc\JJ
=7	=7	=7	=7	=7	=7	=7	=7	=7	=7	=7	=7	=7
*	*	*	*	*	*	*^	*	*^	*	*	*	*
4D\	.	2.r	.	2.r	.	4r	4ryy	4r	4r	4ryy	4d\	4r	4r	16bb\LL)
.	.	.	.	.	.	.	.	.	.	.	.	.	.	(16gg\JJ
.	.	.	.	.	.	.	.	.	.	.	.	.	.	4ddd\
4r	.	.	.	.	.	2D/	2d/	4D\	4b\	4g\	4r	4g\	4b\	.
.	.	.	.	.	.	.	.	.	.	.	.	.	.	16ccc\LL
.	.	.	.	.	.	.	.	.	.	.	.	.	.	16bb\JJ
4D\	.	.	.	.	.	.	.	4D\	4cc	4a\	4d\	4a\	4cc\	16aa\LL
.	.	.	.	.	.	.	.	.	.	.	.	.	.	16gg\
.	.	.	.	.	.	.	.	.	.	.	.	.	.	16ff#\
.	.	.	.	.	.	.	.	.	.	.	.	.	.	16aa\JJ)
=8	=8	=8	=8	=8	=8	=8	=8	=8	=8	=8	=8	=8	=8	=8
*	*	*	*	*	*	*	*	*	*	*	*	*	*	*
4G\	.	2.r	.	2.r	.	4D/	4d/	4GG/	4b/	4g\	4G/	4g\	4b`\	16gg\LL
.	.	.	.	.	.	.	.	.	.	.	.	.	.	(16bb\JJ
!	!	!	!	!	!	!	!	!	!	!	!	!	!	!LO:TUP:a
.	.	.	.	.	.	.	.	.	.	.	.	.	.	24gg\LL
.	.	.	.	.	.	.	.	.	.	.	.	.	.	24dd\
.	.	.	.	.	.	.	.	.	.	.	.	.	.	24b\JJ)
4GG/	.	.	.	.	.	4D/	4d/	4G\	4gg 4b\	2ryy	4G/	4d 4B/	4gg 4b\	4g/
4r	.	.	.	.	.	4r	4ryy	4r	4r	.	4r	4r	4r	4r
*	*	*	*	*	*	*v	*v	*	*	*	*	*	*	*
*	*	*	*	*	*	*	*	*v	*v	*	*	*	*
=9	=9	=9	=9	=9	=9	=9	=9	=9	=9	=9	=9	=9
*2\right	*	*2\right	*	*2\right	*	*	*	*	*	*	*	*
[2.G\	.	2g\	Bóg	2b\	Bóg	2.r	2.r	2.r	[2.G/	4r	4r	2.r
.	.	.	.	.	.	.	.	.	.	(4g\	4b\	.
.	.	4a\	to	4cc\	to	.	.	.	.	4a\)	4cc\	.
=10	=10	=10	=10	=10	=10	=10	=10	=10	=10	=10	=10	=10
2.G\_	.	4b\	Bóg	(4dd\	Bóg	2.r	2.r	2.r	2.G/_	(4b\	(4dd\	2.r
.	.	4cc\	.	4ee\)	.	.	.	.	.	4cc\)	4ee\)	.
.	.	4b\	sam	4dd\	Sam	.	.	.	.	4b\	4dd`\	.
=11	=11	=11	=11	=11	=11	=11	=11	=11	=11	=11	=11	=11
!!LO:PB:g=original
!LO:TX:a:t=P:problem:brak zakończenia ligatury	!	!	!	!	!	!	!	!	!LO:TX:b:t=P:problem:brak zakończenia ligatury	!	!	!
2.G\_	.	2b\	w tych	2gg\	w tych	2.r	2.r	2.r	2.G/_	4r	4r	2.r
.	.	.	.	.	.	.	.	.	.	4b\	4gg\	.
.	.	4cc\	wy-	4ee\	wy-	.	.	.	.	4cc\	4ee\	.
=12	=12	=12	=12	=12	=12	=12	=12	=12	=12	=12	=12	=12
2G\]	.	8b\L	-ra-	8dd\L	-ra-	2.r	2.r	2.r	2G/]	8b\L	8dd\L	4r
.	.	8a\J	.	8cc\J	.	.	.	.	.	8a\J	8cc\J	.
.	.	4g\	-zach	4b\	-zach	.	.	.	.	4g\	4b\	8r
.	.	.	.	.	.	.	.	.	.	.	.	(8gg\
4r	.	4r	.	4r	.	.	.	.	4r	4r	4r	16ff#\LL
.	.	.	.	.	.	.	.	.	.	.	.	16gg\
.	.	.	.	.	.	.	.	.	.	.	.	16aa\
.	.	.	.	.	.	.	.	.	.	.	.	16gg\JJ)
=13	=13	=13	=13	=13	=13	=13	=13	=13	=13	=13	=13	=13
*	*	*	*	*	*	*	*	*	*2\right	*2\right	*2\right	*
[2.D\	.	2a\	Swo-	2cc\	Swo-	2.r	2.r	2.r	2.d\	2a\	2cc\	4.ff#t\
.	.	.	.	.	.	.	.	.	.	.	.	16ee\LL
.	.	.	.	.	.	.	.	.	.	.	.	16ff#\JJ
.	.	4g\	-ie	4b\	-ie	.	.	.	.	4g\	4b\	16gg\LL
.	.	.	.	.	.	.	.	.	.	.	.	16bb\
.	.	.	.	.	.	.	.	.	.	.	.	16ddd\
.	.	.	.	.	.	.	.	.	.	.	.	16bb\JJ
=14	=14	=14	=14	=14	=14	=14	=14	=14	=14	=14	=14	=14
2.D\_	.	2f#\	pra-	2a\	pra-	2.r	2.r	2.r	2.d\	4r	4r	16ddd\LL
.	.	.	.	.	.	.	.	.	.	.	.	16ccc\
.	.	.	.	.	.	.	.	.	.	.	.	(16aa\
.	.	.	.	.	.	.	.	.	.	.	.	16ff#\JJ
.	.	.	.	.	.	.	.	.	.	4f#\	4a\	16dd\LL
.	.	.	.	.	.	.	.	.	.	.	.	16cc\
.	.	.	.	.	.	.	.	.	.	.	.	16a\
.	.	.	.	.	.	.	.	.	.	.	.	16cc\JJ
.	.	4g\	-wdy	4b\	-wdy	.	.	.	.	4g\	4b\	16b\LL
.	.	.	.	.	.	.	.	.	.	.	.	16dd\)
.	.	.	.	.	.	.	.	.	.	.	.	16gg\
.	.	.	.	.	.	.	.	.	.	.	.	16bb\JJ
=15	=15	=15	=15	=15	=15	=15	=15	=15	=15	=15	=15	=15
!	!	!	!	!LO:N:vis=8	!	!	!	!	!	!	!	!
2.D\]	.	4a\	nam	4cc\	nam	2.r	2.r	2.r	2.d\	4a\	4cc\	16aa\LL
.	.	.	.	.	.	.	.	.	.	.	.	16ddd\
.	.	.	.	.	.	.	.	.	.	.	.	16aa\
.	.	.	.	.	.	.	.	.	.	.	.	16ff#\JJ
!	!	!	!	!LO:N:vis=8	!	!	!	!	!	!	!	!
.	.	4f#\	.	4a\	.	.	.	.	.	4f#\	4a\	16dd\LL
.	.	.	.	.	.	.	.	.	.	.	.	(16ddd\
.	.	.	.	.	.	.	.	.	.	.	.	16ccc\
.	.	.	.	.	.	.	.	.	.	.	.	16aa\JJ
!	!	!	!	!LO:N:vis=8	!	!	!	!	!	!	!	!
.	.	4g\	o-	4b\	o-	.	.	.	.	4g\	4b\	16gg\LL
.	.	.	.	.	.	.	.	.	.	.	.	16ddd\
.	.	.	.	.	.	.	.	.	.	.	.	16bb\
.	.	.	.	.	.	.	.	.	.	.	.	16gg\JJ
=16	=16	=16	=16	=16	=16	=16	=16	=16	=16	=16	=16	=16
*	*	*	*	*	*	*	*	*	*	*	*^	*
2D\	.	8f#\L	-gła-	8a\L	-gła-	2.r	2.r	2.r	2d\	(8f#\L	8a\L	4ryy	8dd\)
.	.	8g\J	.	8b\J	.	.	.	.	.	8g\J	8b\J	.	4ddd\
.	.	4f#\	-sza	4a\	-sza	.	.	.	.	4f#\)	4a\	4ryy	.
.	.	.	.	.	.	.	.	.	.	.	.	.	8ff#\
!	!	!	!	!	!	!	!	!	!	!LO:TX:b:t=P:problem:znak trudny do zinterpretowania (tryl? smyczek w dół?)	!LO:TX:a:t=P:problem:znak trudny do zinterpretowania (tryl? smyczek w dół?)	!	!
4C#X\	.	4r	.	4r	.	.	.	.	4c#X\	4eT</	4aT/	4g\	16aa\LL
.	.	.	.	.	.	.	.	.	.	.	.	.	16gg\
!	!	!	!	!	!	!	!	!	!	!	!	!	!LO:TUP:a:problem:klamra łukowa, kropka zamiast numeru
.	.	.	.	.	.	.	.	.	.	.	.	.	24ff#\
.	.	.	.	.	.	.	.	.	.	.	.	.	24gg\
.	.	.	.	.	.	.	.	.	.	.	.	.	24ee\JJ
=17	=17	=17	=17	=17	=17	=17	=17	=17	=17	=17	=17	=17	=17
[2.D\	.	2f#\	na	2a\	na	2.r	2.r	2.r	2.d\	2f#\	2a/	2d\	4dd\
.	.	.	.	.	.	.	.	.	.	.	.	.	4r
.	.	4g\	tych	4b\	tych	.	.	.	.	4g\	4b/	4ryy	4r
*	*	*	*	*	*	*	*	*	*	*	*v	*v	*
=18	=18	=18	=18	=18	=18	=18	=18	=18	=18	=18	=18	=18
2.D\]	.	2f#\	to	2a\	to	2.r	2.r	2.r	2.d\	4r	4r	4r
.	.	.	.	.	.	.	.	.	.	4f#/	4a/	8r
.	.	.	.	.	.	.	.	.	.	.	.	8aa\
.	.	4d\	wa-	4f#\	wa-	.	.	.	.	4d/	4f#/	8.bb\L
.	.	.	.	.	.	.	.	.	.	.	.	16aa\Jk
=19	=19	=19	=19	=19	=19	=19	=19	=19	=19	=19	=19	=19
*	*	*	*	*	*	*	*	*	*	*	*	*2\right
!	!	!	!	!	!	!	!	!	!	!	!	!LO:TX:a:t=P:problem:znak trudny do zinterpretowania (tryl? smyczek w dół?)
4C#X\	.	(4e\	-ro-	(4f#\	-ro-	2.r	2.r	2.r	4c#X\	4e/	4g/	2.aaT\
4AA\	.	4c#X\)	.	4a\)	.	.	.	.	4A\	4c#X/	4a/	.
4C#\	.	4e\	-wnych	4g\	-wnych	.	.	.	4c#\	4e/	4g/	.
.	.	.	.	.	.	.	.	.	.	.	.	.
.	.	.	.	.	.	.	.	.	.	.	.	(>16qqgg#\LL
.	.	.	.	.	.	.	.	.	.	.	.	16qqaa\JJ
=20	=20	=20	=20	=20	=20	=20	=20	=20	=20	=20	=20	=20
4D\	.	2d\	gła-	2f#\	gła-	2.r	2.r	2.r	4d\	4r	4r	16aa\LL)
.	.	.	.	.	.	.	.	.	.	.	.	16dd\
.	.	.	.	.	.	.	.	.	.	.	.	16ff#\
.	.	.	.	.	.	.	.	.	.	.	.	16aa\JJ
4r	.	.	.	.	.	.	.	.	4r	4d/	4f#/	8ddd\
.	.	.	.	.	.	.	.	.	.	.	.	8r
4BB\	.	4f#\	-zach	4dd\	-zach	.	.	.	4B\	4f#/	4dd\	4r
=21	=21	=21	=21	=21	=21	=21	=21	=21	=21	=21	=21	=21
4E\	.	2g\	sto-	2cc#X\	sto-	2.r	2.r	2.r	4e\	4r	4r	2.r
4r	.	.	.	.	.	.	.	.	4re	4g/	4cc#X\	.
4D\	.	4f#\	-i	4dd\	-i	.	.	.	4d\	4f#/	4dd\	.
=22	=22	=22	=22	=22	=22	=22	=22	=22	=22	=22	=22	=22
*	*	*	*	*	*	*^	*	*^	*	*	*	*
4G\	.	2g\	Swię-	4.dd\	Swię-	4r	4ryy	4r	4r	4ryy	4g\	8r	8r	2.r
.	.	.	.	.	.	.	.	.	.	.	.	8b 8g\	8ee\L	.
*	*	*	*	*	*	*	*	*	*	*	*	*tremolo	*	*
4r	.	.	.	.	.	4r	4ryy	4r	4r	4ryy	4r	8bL 8g\	8ee\	.
.	.	.	.	8b\	-ta	.	.	.	.	.	.	8b 8g\	8b\	.
4GG/	.	8e\L	-ta	8gg\L	.	8d/L	8d\L	4G\	4b\	4g\	4G/	8b 8g\	8gg\	.
.	.	8g\J	.	8ee\J	.	8e/J	8e\J	.	.	.	.	8bJ 8g\	8ee\J	.
*	*	*	*	*	*	*	*	*	*	*	*	*Xtremolo	*	*
*	*	*	*	*	*	*	*	*	*	*	*	*	*	*
=23	=23	=23	=23	=23	=23	=23	=23	=23	=23	=23	=23	=23	=23	=23
!!LO:PB:g=original
*	*	*	*	*	*	*	*	*2\right	*2\right	*	*	*	*	*
!	!	!	!	!	!	!	!	!	!	!	!LO:TX:a:t=P:problem:partia zapisana na samym dole strony	!	!	!
!	!	!	!	!	!	!	!	!	!	!	!	!	!	!
4AA/	.	2f#\	wia-	2dd\	wia-	4f#\	4d\	2.A\	2a\	2f#\	4A/	8r	8r	2.r
.	.	.	.	.	.	.	.	.	.	.	.	8aL 8f#\	8dd\L	.
4r	.	.	.	.	.	4d\	4F#\	.	.	.	4r	8a 8f#\	8dd\	.
.	.	.	.	.	.	.	.	.	.	.	.	8a 8f#\	8dd\	.
!	!	!	!	!	!	!	!	!	!	!	!	!	!	!
4AA/	.	4e\	-ra	4cc#X\	-ra	4e\	4A\	.	4cc\	4e\	4e 4A/	8a 8g\	8cc#X\	.
.	.	.	.	.	.	.	.	.	.	.	.	8aJ 8g\	8cc#\J	.
*	*	*	*	*	*	*	*	*	*	*	*	*	*	*
*	*	*	*	*	*	*v	*v	*	*	*	*	*	*	*
=24	=24	=24	=24	=24	=24	=24	=24	=24	=24	=24	=24	=24	=24
!	!	!	!	!	!	!	!	!	!	!	!	!	!
4AA/	.	2.e\	na-	2.cc#X\	na-	[2.D/	2.G\	(2.cc\	2.e\	8r	8r	8r	2.r
.	.	.	.	.	.	.	.	.	.	8A\	8aL 8g\	8cc#X\L	.
*	*	*	*	*	*	*	*	*	*	*tremolo	*	*	*
4r	.	.	.	.	.	.	.	.	.	8eL 8A\	8a 8g\	8cc#\	.
.	.	.	.	.	.	.	.	.	.	8e 8A\	8a 8g\	8cc#\	.
4AA/	.	.	.	.	.	.	.	.	.	8e 8A\	8a 8g\	8cc#\	.
.	.	.	.	.	.	.	.	.	.	8eJ 8A\	8aJ 8g\	8cc#\J	.
=25	=25	=25	=25	=25	=25	=25	=25	=25	=25	=25	=25	=25	=25
*	*	*	*	*	*	*	*	*	*	*	*	*	*
4D\	.	2f#\	-sza	2dd\	-sza	2.D/]	2F#\	2.dd/)	4d/	8r	8r	8r	4r
.	.	.	.	.	.	.	.	.	.	8d\	8aL 8f#\	8dd\L	.
4D\	.	.	.	.	.	.	.	.	4a\	8d\L	8a 8f#\	8dd\	8r
.	.	.	.	.	.	.	.	.	.	8d\	8aJ 8f#\	8dd\	8aa\L
4D\	.	4r	.	4r	.	.	4G\	.	4f#\	8d\	8f#L 8A/	8a\	8ddd\
.	.	.	.	.	.	.	.	.	.	8d\J	8f#J 8A/	8a\J	8fff#\J
=26	=26	=26	=26	=26	=26	=26	=26	=26	=26	=26	=26	=26	=26
4D\	.	2.r	.	2.r	.	2.D/	4B\	(2.ee/	4g\	8r	8r	8r	4.eee\
.	.	.	.	.	.	.	.	.	.	8d\	8gL 8B/	8bL 8g\	.
4D\	.	.	.	.	.	.	4B-X\	.	(>4e\	8d\L	8g 8B-X/	8b-X 8g\	.
.	.	.	.	.	.	.	.	.	.	8d\	8gJ 8B-/	8b- 8g\	16fff#\LL
.	.	.	.	.	.	.	.	.	.	.	.	.	16ggg\JJ
!	!	!	!	!	!	!	!	!	!	!	!	!	!
4D\	.	.	.	.	.	.	4A\	.	4c\)	8d\	8e/L	8a 8g\	8ccc#X\L
.	.	.	.	.	.	.	.	.	.	8d\J	8e/J	8aJ 8g\	16ddd\L
.	.	.	.	.	.	.	.	.	.	.	.	.	16eee\JJ
=27	=27	=27	=27	=27	=27	=27	=27	=27	=27	=27	=27	=27	=27
4D\	.	2.r	.	2.r	.	2.D/	2F#\	2.dd/)	4d\	8r	8r	8r	4.ddd\
.	.	.	.	.	.	.	.	.	.	8d\	8d/	8a 8f#\	.
*	*	*	*	*	*	*	*	*	*	*	*tremolo	*tremolo	*
4D\	.	.	.	.	.	.	.	.	4a\	8d\L	8d/L	8aL 8f#\	.
.	.	.	.	.	.	.	.	.	.	8d\	8d/	8a 8f#\	8aa\L
4D\	.	.	.	.	.	.	4A\	.	4f#\	8d\	8d/	8a 8f#\	8ddd\
.	.	.	.	.	.	.	.	.	.	8d\J	8d/J	8aJ 8f#\	8fff#\J
*	*	*	*	*	*	*	*	*	*	*	*Xtremolo	*Xtremolo	*
=28	=28	=28	=28	=28	=28	=28	=28	=28	=28	=28	=28	=28	=28
4D\	.	2.r	.	2.r	.	2.D/	4B\	2.ee/	4g\	8r	8r	8r	4.eee\
.	.	.	.	.	.	.	.	.	.	8d\	8gL 8B/	8bL 8g\	.
4D\	.	.	.	.	.	.	4B-X\	.	4e\	8d\L	8g 8B-X/	8b-X 8g\	.
.	.	.	.	.	.	.	.	.	.	8d\	8gJ 8B-/	8b- 8g\	16fff#\LL
.	.	.	.	.	.	.	.	.	.	.	.	.	16ggg\JJ
!	!	!	!	!	!	!	!	!	!	!	!	!	!
4D\	.	.	.	.	.	.	4A\	.	4c\	8d\	8e/L	8a 8g\	8ccc#X\L
.	.	.	.	.	.	.	.	.	.	8d\J	8e/J	8aJ 8g\	16ddd\L
.	.	.	.	.	.	.	.	.	.	.	.	.	16eee\JJ
=29	=29	=29	=29	=29	=29	=29	=29	=29	=29	=29	=29	=29	=29
4D\	.	2.r	.	2.r	.	2.D/	2F#\	2.dd/	4d\	8r	8r	8r	[4ddd\
.	.	.	.	.	.	.	.	.	.	8d\	8d/	8a 8f#\	.
*	*	*	*	*	*	*	*	*	*	*	*tremolo	*tremolo	*
4D\	.	.	.	.	.	.	.	.	4a\	8d\L	8d/L	8aL 8f#\	16ddd\LL]
.	.	.	.	.	.	.	.	.	.	.	.	.	16aa\
.	.	.	.	.	.	.	.	.	.	8d\	8d/	8a 8f#\	(16ff#\
.	.	.	.	.	.	.	.	.	.	.	.	.	16aa\JJ
4D\	.	.	.	.	.	.	4A\	.	4f#\	8d\	8d/	8a 8f#\	16ddd\LL
.	.	.	.	.	.	.	.	.	.	.	.	.	16aa\
.	.	.	.	.	.	.	.	.	.	8d\J	8d/J	8aJ 8f#\	16fff#\
.	.	.	.	.	.	.	.	.	.	.	.	.	16eee\JJ
*	*	*	*	*	*	*	*	*	*	*Xtremolo	*Xtremolo	*Xtremolo	*
=30	=30	=30	=30	=30	=30	=30	=30	=30	=30	=30	=30	=30	=30
4D\	.	8r	.	8r	.	4D/	4D/	4dd/	4d\	4d\	4d/	4a 4f#\	4ddd\)
.	.	8a\	Pa-	8cc\	Pa-	.	.	.	.	.	.	.	.
4r	.	16a\LL	.	16cc\LL	.	4r	4r	4r	4ryy	2r	4r	4r	4r
.	.	16g\	.	16b\	.	.	.	.	.	.	.	.	.
.	.	16f#\	.	16a\	.	.	.	.	.	.	.	.	.
.	.	16g\JJ	.	16b\JJ	.	.	.	.	.	.	.	.	.
4r	.	16a\LL	.	16cc\LL	.	4r	4r	4r	4ryy	.	4r	4r	4r
.	.	16g\	.	16b\	.	.	.	.	.	.	.	.	.
.	.	16cc\	.	16ee\	.	.	.	.	.	.	.	.	.
.	.	16b\JJ	.	16dd\JJ	.	.	.	.	.	.	.	.	.
*	*	*	*	*	*	*	*	*v	*v	*	*	*	*
=31	=31	=31	=31	=31	=31	=31	=31	=31	=31	=31	=31	=31
!	!	!	!	!	!	!	!	!	!	!	!	!
2.r	.	4.a\	-nie	4.cc\	-nie	2.r	2.r	2.r	2.r	2.r	2.r	4r
.	.	.	.	.	.	.	.	.	.	.	.	8r
.	.	8r	.	8r	.	.	.	.	.	.	.	(16ff#\LL
.	.	.	.	.	.	.	.	.	.	.	.	16gg\JJ
.	.	4r	.	4r	.	.	.	.	.	.	.	16aa\LL
.	.	.	.	.	.	.	.	.	.	.	.	16gg\
.	.	.	.	.	.	.	.	.	.	.	.	16bb\
!	!	!	!	!	!	!	!	!	!LO:TX:a:t=Viola	!	!	!
.	.	.	.	.	.	.	.	.	.	.	.	16aa\JJ
=32	=32	=32	=32	=32	=32	=32	=32	=32	=32	=32	=32	=32
[2.G\	.	2g\	Pa-	2b\	Pa-	2.r	2.r	2.r	[2.G/	4r	4r	4gg\)
.	.	.	.	.	.	.	.	.	.	(4g\	4b\	4r
.	.	4a\	-nie	4cc\	-nie	.	.	.	.	4a\)	4cc\	4r
=33	=33	=33	=33	=33	=33	=33	=33	=33	=33	=33	=33	=33
2.G\]	.	4b\	ty-	(4dd\	ty-	2.r	2.r	2.r	2.G/]	(4b\	4dd\	2.r
.	.	4cc\	.	4ee\)	.	.	.	.	.	4cc\)	4ee\	.
.	.	4b\	-siąc	4dd\	-siąc	.	.	.	.	4b`\	4dd\	.
=34	=34	=34	=34	=34	=34	=34	=34	=34	=34	=34	=34	=34
!!LO:PB:g=original
2.G\	.	2b\	wie-	2gg\	wie-	2.r	2.r	2.r	2.G/	4r	4r	2.r
.	.	.	.	.	.	.	.	.	.	4b\	4gg\	.
.	.	4cc\	-kow	4ee\	-kow	.	.	.	.	4cc\	4ee\	.
=35	=35	=35	=35	=35	=35	=35	=35	=35	=35	=35	=35	=35
2G\	.	8b\L	pły-	8dd\L	pły-	2.r	2.r	2.r	2G/	8b\L	8dd\L	4r
.	.	8a\J	.	8cc\J	.	.	.	.	.	8a\J	8cc\J	.
.	.	4g\	-nie	4b\	-nie	.	.	.	.	4g\	4b\	8r
.	.	.	.	.	.	.	.	.	.	.	.	8gg\
!	!	!LO:N:vis=2	!	!	!	!	!	!	!	!	!	!
4r	.	4r	.	4r	.	.	.	.	4r	4r	4r	16ff#\LL
.	.	.	.	.	.	.	.	.	.	.	.	16gg\
.	.	.	.	.	.	.	.	.	.	.	.	16bb\
.	.	.	.	.	.	.	.	.	.	.	.	16gg\JJ
=36	=36	=36	=36	=36	=36	=36	=36	=36	=36	=36	=36	=36
*	*	*	*	*	*	*^	*	*	*	*	*	*
2.D\	.	2a\	Swia-	2cc\	Swia-	2.D/	2.d/	2.r	2.r	2.d\	2a\	2cc\	4.ff#t\
.	.	.	.	.	.	.	.	.	.	.	.	.	16ee\LL
.	.	.	.	.	.	.	.	.	.	.	.	.	16ff#\JJ
.	.	4g\	-ta	4b\	-ta	.	.	.	.	.	4g\	4b\	16gg\LL
.	.	.	.	.	.	.	.	.	.	.	.	.	16bb\
.	.	.	.	.	.	.	.	.	.	.	.	.	16ddd\
.	.	.	.	.	.	.	.	.	.	.	.	.	16bb\JJ
=37	=37	=37	=37	=37	=37	=37	=37	=37	=37	=37	=37	=37	=37
2.D\	.	2f#\	Skru-	2a\	Skru-	2.D/	2.d/	2.r	2.r	2.d\	4r	4r	16ddd\LL
.	.	.	.	.	.	.	.	.	.	.	.	.	16ccc\
.	.	.	.	.	.	.	.	.	.	.	.	.	16aa\
.	.	.	.	.	.	.	.	.	.	.	.	.	16ff#\JJ
.	.	.	.	.	.	.	.	.	.	.	4f#\	4a\	16dd\LL
.	.	.	.	.	.	.	.	.	.	.	.	.	16cc\
.	.	.	.	.	.	.	.	.	.	.	.	.	16a\
.	.	.	.	.	.	.	.	.	.	.	.	.	16cc\JJ
.	.	4g\	-szy	4b\	-szy	.	.	.	.	.	4g\	4b\	16b\LL
.	.	.	.	.	.	.	.	.	.	.	.	.	16dd\
.	.	.	.	.	.	.	.	.	.	.	.	.	16gg\
.	.	.	.	.	.	.	.	.	.	.	.	.	16bb\JJ
=38	=38	=38	=38	=38	=38	=38	=38	=38	=38	=38	=38	=38	=38
2.D\	.	(4a\	się	(4cc\	się	2.D/	[>2.d/	2.r	2.r	2.d\	4a\	4cc\	16aa\LL
.	.	.	.	.	.	.	.	.	.	.	.	.	16ddd\
.	.	.	.	.	.	.	.	.	.	.	.	.	16aa\
.	.	.	.	.	.	.	.	.	.	.	.	.	16ff#\JJ
.	.	4f#\)	.	4a\)	bu-	.	.	.	.	.	4f#\	4a\	16dd\LL
.	.	.	.	.	.	.	.	.	.	.	.	.	16ddd\
.	.	.	.	.	.	.	.	.	.	.	.	.	16ccc\
.	.	.	.	.	.	.	.	.	.	.	.	.	16aa\JJ
.	.	4g\	bu-	4b\	.	.	.	.	.	.	4g\	4b\	16gg\LL
.	.	.	.	.	.	.	.	.	.	.	.	.	16ddd\
.	.	.	.	.	.	.	.	.	.	.	.	.	16bb\
.	.	.	.	.	.	.	.	.	.	.	.	.	16gg\JJ
=39	=39	=39	=39	=39	=39	=39	=39	=39	=39	=39	=39	=39	=39
2D\	.	8f#\L	-do-	8a\L	-do-	2.D/	2.d/]	2.r	2.r	2d\	8f#\L	8a\L	8dd\
.	.	8g\J	.	8b\J	.	.	.	.	.	.	8g\J	8b\J	4ddd\
.	.	4f#\	-wa	4a\	-wa	.	.	.	.	.	4f#\	4a\	.
.	.	.	.	.	.	.	.	.	.	.	.	.	8ff#\
4r	.	4r	.	4r	.	.	.	.	.	4r	4r	4r	16ddd\LL
.	.	.	.	.	.	.	.	.	.	.	.	.	16ccc\JJ
*	*	*	*	*	*	*	*	*	*	*	*	*	*
!	!	!	!	!	!	!	!	!	!	!	!	!	!LO:TUP:a:problem:klamra łukowa na sześc wartości, kropka zamiast numeru
.	.	.	.	.	.	.	.	.	.	.	.	.	24bb\LL
.	.	.	.	.	.	.	.	.	.	.	.	.	24ccc\
.	.	.	.	.	.	.	.	.	.	.	.	.	24aa\JJ
*	*	*	*	*	*	*v	*v	*	*	*	*	*	*
=40	=40	=40	=40	=40	=40	=40	=40	=40	=40	=40	=40	=40
2.G\	.	2g\	mi-	2b\	mi-	2.r	2.r	2.r	2.G/	4r	4r	4gg\
!	!	!	!	!	!	!	!	!	!	!LO:TX:a:t=P:problem:dopisany dźwięk "b"	!	!
.	.	.	.	.	.	.	.	.	.	4g/	4b\	4r
.	.	4a\	-nie	4cc\	-nie	.	.	.	.	4a/	4cc\	4r
=41	=41	=41	=41	=41	=41	=41	=41	=41	=41	=41	=41	=41
2G\	.	8b\L	zie-	8dd\L	zie-	2.r	2.r	2.r	4.G/	8b\L	8dd\L	4r
.	.	8cc\J	.	8ee\J	.	.	.	.	.	8cc\J	8ee\J	.
.	.	4b\	-mia	4dd\	-mia	.	.	.	.	8b\L	8dd\L	8r
.	.	.	.	.	.	.	.	.	(8g\L	8g\	8b\	(8bb\L
4r	.	4r	.	4r	.	.	.	.	8f#X\	8a\	8cc\	8ccc\
.	.	.	.	.	.	.	.	.	8fn\J)	8b\J	8dd\J	8ddd\J
=42	=42	=42	=42	=42	=42	=42	=42	=42	=42	=42	=42	=42
2.G\	.	2cc\	Nie-	2ee\	Nie-	2.r	2.r	2.r	4e\	4r	4r	4eee\)
.	.	.	.	.	.	.	.	.	4c\	4g/	4ee\	4r
.	.	4a\	-bo	4ff#\	-bo	.	.	.	4A\	4cc/	4ff#\	4r
=43	=43	=43	=43	=43	=43	=43	=43	=43	=43	=43	=43	=43
2G\	.	8b\L	mi-	8gg\L	mi-	2.r	2.r	2.r	2G/	8b\L	8gg\L	2.r
.	.	8cc\J	.	8ee\J	.	.	.	.	.	8cc\J	8ee\J	.
!	!	!	!	!	!	!	!	!	!	!	!	!
.	.	4b\	-nie	4dd\	-nie	.	.	.	.	4ryy	4dd\	.
8C/	.	8cc\	Nie	8ee\	Nie	.	.	.	8c\	8r	8r	.
8r	.	8cc\	prze-	8ee\	prze-	.	.	.	8r	8cc\	8ee\	.
=44	=44	=44	=44	=44	=44	=44	=44	=44	=44	=44	=44	=44
!!LO:PB:g=original
4D\	.	4.b\	-mi-	4.dd\	-mi-	2.r	2.r	2.r	4d\	8r	8r	2.r
.	.	.	.	.	.	.	.	.	.	8b\	8dd\	.
4D\	.	.	.	.	.	.	.	.	4d\	8b\L	8dd\L	.
.	.	8a\	-ną	8cc\	-ną	.	.	.	.	8a\	8cc\	.
4D\	.	8g\	Two-	8b\	Two-	.	.	.	4d\	8g\	8b\	.
.	.	8f#\	-ie	8a\	-ie	.	.	.	.	8f#\J	8a\J	.
=45	=45	=45	=45	=45	=45	=45	=45	=45	=45	=45	=45	=45
2G\	.	4g\	sło-	4b\	sło-	2.r	2.r	2.r	2G/	8r	8r	8r
.	.	.	.	.	.	.	.	.	.	8g\L	8b\L	8bb\
.	.	8g\	-wa	8b\	-wa	.	.	.	.	8g\	8b\	16bb\LL
.	.	.	.	.	.	.	.	.	.	.	.	16gg\
.	.	8r	.	8r	.	.	.	.	.	8g\J	8b\	16dd\
.	.	.	.	.	.	.	.	.	.	.	.	16bb\JJ
4F#\	.	4r	.	4r	.	.	.	.	4F#/	8aL 8d/	8cc\	16ccc\LL
.	.	.	.	.	.	.	.	.	.	.	.	16aa\
.	.	.	.	.	.	.	.	.	.	8aJ 8d/	8cc\J	16ddd\
.	.	.	.	.	.	.	.	.	.	.	.	16ccc\JJ
=46	=46	=46	=46	=46	=46	=46	=46	=46	=46	=46	=46	=46
*	*	*	*	*	*	*^	*	*	*	*	*	*
*	*	*	*	*	*	*2\right	*	*	*	*	*	*	*
2.G\	.	2g\	Zie-	2b\	Zie-	2d\	4ryy	2.G\	2dd 2b\	2.G/	4r	4r	16bb\LL
.	.	.	.	.	.	.	.	.	.	.	.	.	16gg\
.	.	.	.	.	.	.	.	.	.	.	.	.	16ddd\
.	.	.	.	.	.	.	.	.	.	.	.	.	16bb\JJ
.	.	.	.	.	.	.	4ryy	.	.	.	4g\	4b\	8gg\
.	.	.	.	.	.	.	.	.	.	.	.	.	8r
.	.	4g\	-mia	4b\	-mia	4e/	4cnX\	.	4ee 4cc\	.	4a\	4cc\	4r
=47	=47	=47	=47	=47	=47	=47	=47	=47	=47	=47	=47	=47	=47
!	!	!	!	!	!	!	!	!	!	!LO:TX:a:t=P:problem:nuta bez caudy	!	!	!
2G\	.	8b\L	mi-	8dd\L	mi-	8d/L	8d\L	2G\	8ddL 8b\	4.G/	8b\L	8dd\L	4r
.	.	8cc\J	.	8ee\J	.	8e/J	8cnX\J	.	8eeJ 8cc\	.	8cc\J	8ee\J	.
.	.	4b\	-nie	4dd\	-nie	4d/	4d\	.	4dd 4b\	.	8b\L	8dd\L	8r
.	.	.	.	.	.	.	.	.	.	8g\L	8g\	8b\	16.bb\LL
.	.	.	.	.	.	.	.	.	.	.	.	.	32bb\K
!	!	!	!	!	!	!	!	!	!LO:TUP:b:problem:klamra łukowa w środku grupy, kropka zamiast numeru	!	!	!	!
!	!	!	!	!	!	!	!	!	!LO:N:vis=24	!	!	!	!
4r	.	4r	.	4r	.	4r	4ryy	4r	(12bL 12g\	8f#X\	8a\	8cc\	16.ccc\
!	!	!	!	!	!	!	!	!	!LO:N:vis=24	!	!	!	!
.	.	.	.	.	.	.	.	.	12cc 12a\	.	.	.	.
.	.	.	.	.	.	.	.	.	.	.	.	.	32ccc\K
.	.	.	.	.	.	.	.	.	.	8fn\J	8b\J	8dd\J	16.ddd\
!	!	!	!	!	!	!	!	!	!LO:N:vis=24	!	!	!	!
.	.	.	.	.	.	.	.	.	12ddJ 12b\)	.	.	.	.
.	.	.	.	.	.	.	.	.	.	.	.	.	32ddd\JJk
=48	=48	=48	=48	=48	=48	=48	=48	=48	=48	=48	=48	=48	=48
2.G\	.	2cc\	Nie-	2ee\	Nie-	2e/	2cnX\	2.G\	2ee 2cc\	4e\	4r	4r	16eee\LL
.	.	.	.	.	.	.	.	.	.	.	.	.	16ccc\
.	.	.	.	.	.	.	.	.	.	.	.	.	16ggg\
.	.	.	.	.	.	.	.	.	.	.	.	.	16eee\JJ
.	.	.	.	.	.	.	.	.	.	4c\	4g\	4ee\	8ccc\
.	.	.	.	.	.	.	.	.	.	.	.	.	8r
.	.	4a\	-bo	4ff#\	-bo	4d/	4c\	.	4ff# 4a\	4A\	4cc\	4ff#\	4r
=49	=49	=49	=49	=49	=49	=49	=49	=49	=49	=49	=49	=49	=49
2G\	.	8b\L	mi-	8gg\L	mi-	8d/L	8d\L	2G\	8ggL 8b\	2G/	8b\L	8gg\L	4r
.	.	8cc\J	.	8ee\J	.	8e/J	8cnX\J	.	8eeJ 8cc\	.	8cc\J	8ee\J	.
.	.	4b\	-nie	4dd\	-nie	4d/	4d\	.	4dd 4b\	.	4b\	4dd\	4r
8C/	.	8cc\	nie	8ee\	nie	4e/	4cnX\	4C/	4ee 4cc\	8c\	8r	8r	(8eee\L
8r	.	8cc\	prze-	8ee\	prze-	.	.	.	.	8r	8cc\	8ee\	8ggg\J
*	*	*	*	*	*	*v	*v	*	*	*	*	*	*
=50	=50	=50	=50	=50	=50	=50	=50	=50	=50	=50	=50	=50
4D\	.	4.b\	-mi-	4.dd\	-mi-	2.d\	2.D\	[4dd 4b\	4d\	8r	8r	4bb\)
.	.	.	.	.	.	.	.	.	.	8b\	8dd\	.
!LO:N:vis=8	!	!	!	!	!	!	!	!	!	!	!	!
4D\	.	.	.	.	.	.	.	8dd]L 8b\	4d\	8b\L	8dd\L	16ddd\LL
.	.	.	.	.	.	.	.	.	.	.	.	16eee\
.	.	8a\	-ną	8cc\	-ną	.	.	8cc 8a\	.	8a\	8cc\	16ccc\
.	.	.	.	.	.	.	.	.	.	.	.	16ddd\JJ
4D\	.	8g\	two-	8b\	two-	.	.	8b 8g\	4d\	8g\	8b\	16bb\LL
.	.	.	.	.	.	.	.	.	.	.	.	16ccc\
.	.	8f#\	-ie	8a\	-ie	.	.	8aJ 8f#\	.	8f#\J	8a\J	16aa\
.	.	.	.	.	.	.	.	.	.	.	.	[16ddd\JJ
=51	=51	=51	=51	=51	=51	=51	=51	=51	=51	=51	=51	=51
2G\	.	4g\	sło-	4b\	sło-	2d\	2G\	2b 2g\	2G/	8r	8r	16ddd\LL]
.	.	.	.	.	.	.	.	.	.	.	.	16bb\
.	.	.	.	.	.	.	.	.	.	8g\L	8b\L	16gg\
.	.	.	.	.	.	.	.	.	.	.	.	16bb\JJ
.	.	8g\	-wa	8b\	-wa	.	.	.	.	8g\	8b\	16ddd\LL
.	.	.	.	.	.	.	.	.	.	.	.	16bb\
.	.	8r	.	8r	.	.	.	.	.	8g\	8b\	16ggg\
.	.	.	.	.	.	.	.	.	.	.	.	16fff#\JJ
8C\	.	8cc\	nie	8ee\	nie	4e 4cnX\	4C/	4ee 4cc\	8c\	8g\	8ee\	16eee\LL
.	.	.	.	.	.	.	.	.	.	.	.	(16ccc\
8r	.	8cc\	prze-	8ee\	prze-	.	.	.	8r	8g\J	8ee\J	16eee\
.	.	.	.	.	.	.	.	.	.	.	.	16ggg\JJ
=52	=52	=52	=52	=52	=52	=52	=52	=52	=52	=52	=52	=52
!LO:N:vis=8	!	!	!	!	!	!	!	!	!	!	!	!
4D\	.	4.b\	-mi-	4.dd\	-mi-	[2.d\	[2.D\	4dd 4b\	4d\	8r	8r	4bb\)
.	.	.	.	.	.	.	.	.	.	8b\	8dd\	.
4D\	.	.	.	.	.	.	.	8ddL 8b\	4d\	8b\L	8dd\L	16ddd\LL
.	.	.	.	.	.	.	.	.	.	.	.	16eee\
.	.	8a\	-ną	8cc\	-ną	.	.	8cc 8a\	.	8a\	8cc\	16ccc\
.	.	.	.	.	.	.	.	.	.	.	.	16ddd\JJ
4D\	.	8g\	two-	8b\	two-	.	.	8b 8g\	4d\	8g\	8b\	16bb\LL
.	.	.	.	.	.	.	.	.	.	.	.	16ccc\
.	.	8f#\	-ie	8a\	-ie	.	.	8aJ 8f#\	.	8f#\J	8a\J	16aa\
.	.	.	.	.	.	.	.	.	.	.	.	16bb\JJ
=53	=53	=53	=53	=53	=53	=53	=53	=53	=53	=53	=53	=53
!LO:N:vis=8	!	!	!	!	!	!	!	!	!	!	!	!
4D\	.	2.f#\	sło-	2.a\	sło-	2.d\]	2.D\]	2.cc 2.a\	8r	8r	8r	16ddd\LL
.	.	.	.	.	.	.	.	.	.	.	.	16eee\
*	*	*	*	*	*	*	*	*	*tremolo	*tremolo	*tremolo	*
.	.	.	.	.	.	.	.	.	8d 8c\	8f#/	8a/	16ccc\
.	.	.	.	.	.	.	.	.	.	.	.	16ddd\JJ
*	*	*	*	*	*	*	*	*	*	*	*	*
!LO:N:vis=8	!	!	!	!	!	!	!	!	!	!	!	!
4D\	.	.	.	.	.	.	.	.	8dL 8c\	8f#/L	8a/L	16bb\LL
.	.	.	.	.	.	.	.	.	.	.	.	16ccc\
.	.	.	.	.	.	.	.	.	8d 8c\	8f#/	8a/	16aa\
.	.	.	.	.	.	.	.	.	.	.	.	16bb\JJ
!LO:N:vis=8	!	!	!	!	!	!	!	!	!	!	!	!
4D\	.	.	.	.	.	.	.	.	8d 8c\	8f#/	8a/	16gg\LL
.	.	.	.	.	.	.	.	.	.	.	.	16aa\
.	.	.	.	.	.	.	.	.	8dJ 8c\	8f#/J	8a/J	16ff#\
.	.	.	.	.	.	.	.	.	.	.	.	16aa\JJ
*	*	*	*	*	*	*	*	*	*Xtremolo	*Xtremolo	*Xtremolo	*
=54	=54	=54	=54	=54	=54	=54	=54	=54	=54	=54	=54	=54
!!LO:PB:g=original
2GG/	.	2g\	-wa	2g\	-wa..	2d\	2GG/	2b 2g\	2d 2B\	2g/	2g/	[4gg\
.	.	.	.	.	.	.	.	.	.	.	.	16gg\LL]
.	.	.	.	.	.	.	.	.	.	.	.	16dd\
.	.	.	.	.	.	.	.	.	.	.	.	16b\
.	.	.	.	.	.	.	.	.	.	.	.	16dd\JJ
4r	.	4r	.	4r	.	4r	4r	4r	4r	4r	4r	16gg\LL
.	.	.	.	.	.	.	.	.	.	.	.	16dd\
.	.	.	.	.	.	.	.	.	.	.	.	16bb\
.	.	.	.	.	.	.	.	.	.	.	.	16aa\JJ
=55	=55	=55	=55	=55	=55	=55	=55	=55	=55	=55	=55	=55
[2.GG/	.	2.r	.	2.r	.	8d\	8GG/	8b 8g\	2.G/	8g/L	8b\L	16gg\LL
.	.	.	.	.	.	.	.	.	.	.	.	16dd\
.	.	.	.	.	.	8r	8r	8r	.	8d/	16dd\L	16bb\
.	.	.	.	.	.	.	.	.	.	.	16cc\JJ	16aa\JJ
.	.	.	.	.	.	8d\	8GG/	8b 8g\	.	8g/	8b\L	16gg\LL
.	.	.	.	.	.	.	.	.	.	.	.	16dd\
.	.	.	.	.	.	8r	8r	8r	.	8d/	16dd\L	16bb\
.	.	.	.	.	.	.	.	.	.	.	16cc\JJ	16aa\JJ
.	.	.	.	.	.	8d\	8GG/	8b 8g\	.	8g/	8b\L	16gg\LL
.	.	.	.	.	.	.	.	.	.	.	.	16dd\
.	.	.	.	.	.	8r	8r	8r	.	8d/J	16dd\L	16bb\
.	.	.	.	.	.	.	.	.	.	.	16cc\JJ	16aa\JJ
=56	=56	=56	=56	=56	=56	=56	=56	=56	=56	=56	=56	=56
4GG/]	.	2.r	.	2.r	.	[2.d\	2.GG/	[2.b 2.g\	4G/	8g/	8b\	16gg\LL
.	.	.	.	.	.	.	.	.	.	.	.	16bb\
!	!	!	!	!	!	!	!	!	!	!	!	!LO:TUP:a:problem:klamra łukowa
.	.	.	.	.	.	.	.	.	.	4B/	4d/	24gg\
.	.	.	.	.	.	.	.	.	.	.	.	24dd\
.	.	.	.	.	.	.	.	.	.	.	.	24b\JJ
4GG/	.	.	.	.	.	.	.	.	4G/	.	.	16b/LL
.	.	.	.	.	.	.	.	.	.	.	.	16dd/
!	!	!	!	!	!	!	!	!	!	!	!	!LO:TUP:b:problem:klamra łukowa
.	.	.	.	.	.	.	.	.	.	4B/	4d/	24b/
.	.	.	.	.	.	.	.	.	.	.	.	24d/
.	.	.	.	.	.	.	.	.	.	.	.	24B/JJ
4GG/	.	.	.	.	.	.	.	.	4G/	.	.	8.G/
.	.	.	.	.	.	.	.	.	.	8B/	8d/	.
.	.	.	.	.	.	.	.	.	.	.	.	16gg 16b\
=57	=57	=57	=57	=57	=57	=57	=57	=57	=57	=57	=57	=57
2GG/	.	2.r	.	2.r	.	2d\]	2GG/	2b] 2g\	2G/	2G/	2d 2B/	2gg 2b\
!	!	!LO:TX:b:t=Segue Credo	!	!	!	!	!	!	!	!	!	!
4r	.	.	.	.	.	4r	4r	4r	4r	4r	4r	4r
==	==	==	==	==	==	==	==	==	==	==	==	==
*-	*-	*-	*-	*-	*-	*-	*-	*-	*-	*-	*-	*-
!!!system-decoration: <g1><g2>s7<g3>s10
!!!RDF**kern: > = above
!!!RDF**kern: < = below
!!!ENC: Marta Lawrence
!!!END: 2020-05-01
